media/img/author-noun-grape.svg

<svg width="558" height="548" viewBox="0 0 558 548" fill="none" xmlns="http://www.w3.org/2000/svg"><g clip-path="url(#clip0_623_5934)"><path d="M86.645 172.121c27.966-6.836 62.082.881 95.965 6.861 3.834 12.065 8.442 24.382 13.707 36.583-16.78-.209-31.787 11.317-40.021 26.466-4.846 9.514-6.418 19.921-4.886 29.817-7.812 3.407-15.773 9.542-21.042 17.269-18.463 8.67-41.466 29.874-56.28 49.75-2.324-21.144-5.084-50.175-3.415-70.402.301-3.898-5.272-6.748-8.23-4.215l-16.677 13.821c-.681-18.514 2.033-34.568 10.78-47.915 10.425-15.911 28.44-29.5 56.474-42.249 3.637-1.731 2.97-8.265-.954-9.296l-25.423-6.482.002-.008zm89.344-84.764c.281-.263.506-.389.821-.532 10.098-4.608 9.586 62.452 37.79 123.153l-11.492 8.847C175.785 160.02 167.31 95.511 175.983 87.354l.006.003zm70.835 7.754c2.801-3.329 6.4-7.078 10.077-10.575l-7.988 24.95c-1.183 3.83 3.998 7.845 7.408 5.737 25.818-16.546 45.766-22.507 64.472-20.762 14.538 1.356 29.153 8.863 44.622 19.488l-15.509-.127c-4.139 2.145-7.097 4.508-2.254 9.304 18.307 9.542 41.817 27.712 58.596 41.004-19.966 1.047-38.642 4.883-52.742 9.127a50.15 50.15 0 00-22.992-6.52c-12.175-.449-23.853 3.449-33.143 11.142-22.647-18.051-52.737-15.049-70.618 6.708-4.704 5.871-8.002 12.571-9.612 19.483-3.26-8.434-6.106-17.056-8.689-25.614 7.555-26.892 18.24-59.305 38.373-83.343l-.001-.002zm-77.428 145.313c10.85-13.665 27.356-19.169 48.652-11.014 2.063 10.659 11.347 21.976 21.632 28.446 1.678 8.651.376 17.653-3.612 25.483-9.94 19.515-33.722 27.074-53.398 16.937-19.676-10.138-27.568-33.906-17.631-53.418 1.318-2.27 2.805-4.48 4.355-6.431l.002-.003zm-28.54 51.344c3.514-4.13 7.926-7.686 13.117-10.125 4.125 11.202 12.262 20.978 23.57 27.024-.822 16.146 6.288 30.97 17.953 40.78-2.929 2.17-6.27 3.813-9.705 5.12-20.522 7.8-43.483-2.287-51.536-22.846-5.536-14.135-2.49-29.28 6.602-39.953h-.001zm93.567-101.025c13.688-17.079 38.636-19.441 55.916-5.593 17.28 13.848 20.29 38.611 6.6 55.693-13.687 17.08-38.609 19.658-55.889 5.81-17.28-13.848-20.314-38.83-6.627-55.91zm-46.904 121.958c22.34 6.393 46.638-3.493 57.479-24.776 1.543-3.027 2.69-6.193 3.565-9.444 12.253 7.879 19.393 21.852 18.351 36.533-1.555 21.913-20.553 38.152-42.543 36.352-20.54-1.682-36.15-18.593-36.857-38.664l.005-.001zm116.96-127.717c7.328-5.781 16.489-8.733 25.932-8.386 22.039.814 39.348 19.028 38.786 41.004-.515 20.007-15.703 35.924-35.049 37.992-.348-14.471-7.047-28.273-18.817-37.701.353-11.645-3.289-23.463-10.854-32.906l.002-.003zm-54.293 77.735c19.238 6.469 41.142.855 54.422-15.716 4.256-5.311 7.233-11.23 8.962-17.425 9.492 10.328 13.119 25.127 8.975 38.745-6.312 20.743-28.029 32.222-48.919 26.081-4.296-11.134-12.44-20.684-23.397-26.491a49.18 49.18 0 00-.042-5.193l-.001-.001zm-74.814 104.344c10.252-.763 20.091-4.949 28.644-11.772 3.42 1.848 7.053 3.352 10.905 4.373a48.949 48.949 0 00-7.466 28.545 40.089 40.089 0 01-32.083-21.146zm50.591-5.691c14.095.496 27.173-5.095 36.536-14.373 6.655 12.865 18.378 21.905 31.805 25.489 5.637 14.567 2.394 30.793-8.492 41.813-15.386 15.572-40.753 15.653-56.541.132-14.801-14.553-15.903-37.422-3.31-53.057l.002-.004zm50.447-56.209c17.539 3.051 35.034-3.614 46.132-16.609 10.148 4.585 18.032 13.154 21.638 23.691 7.15 20.878-3.949 43.279-24.798 50.173-20.387 6.74-42.259-4.131-49.91-24.122 5.562-8.968 8.732-21.557 6.941-33.131l-.003-.002zm57.018-39.433c17.56-1.212 32.652-11.664 40.336-26.609a40.764 40.764 0 0111.128 13.083c10.465 19.471 3.293 43.349-16.111 53.565-5.368-1.074-10.992-1.229-16.651-.448a50.551 50.551 0 00-23.782-25.014c2.001-4.374 4.285-9.396 5.08-14.581v.004zm-28.083 108.461c2.896.113 5.774.039 8.698-.37 7.46 17.045 23.75 28.23 41.713 29.858 2.094 16.138-5.706 31.83-19.922 39.594-18.613 10.165-41.942 3.855-53.181-14.047 3.654-2.129 7.056-4.789 10.159-7.93 12.262-12.409 16.908-30.37 12.534-47.105h-.001zm49.757-59.342c19.172-1.95 37.252 10.141 42.706 28.869 6.172 21.177-5.973 43.178-27.137 49.092-18.973 5.303-38.62-4.078-46.934-21.342 23.361-8.319 36.477-32.739 31.366-56.619h-.001zm10.624 88.88c2.295-.333 5.074-.632 7.702-1.369 13.215-3.695 23.717-12.563 29.821-23.725 6.835 2.964 12.925 7.884 17.207 13.989 12.708 18.112 8.498 42.608-9.517 55.078-17.666 12.23-42.03 8.136-54.94-9.105a48.8 48.8 0 009.73-34.866l-.003-.002z" fill="url(#paint0_linear_623_5934)" fill-opacity=".15"/></g><defs><linearGradient id="paint0_linear_623_5934" x1="112.208" y1="140.223" x2="445.451" y2="407.284" gradientUnits="userSpaceOnUse"><stop stop-color="#3F3F3F"/><stop offset="1"/></linearGradient><clipPath id="clip0_623_5934"><path fill="#fff" transform="scale(-1 1) rotate(51.291 -112.24 -233.52)" d="M0 0h358.624v427.623H0z"/></clipPath></defs></svg>

<svg width="558" height="548" viewBox="0 0 558 548" fill="none" xmlns="http://www.w3.org/2000/svg">
<g clip-path="url(#clip0_623_5934)">
<path d="M86.6454 172.121C114.611 165.285 148.727 173.002 182.61 178.982C186.444 191.047 191.052 203.364 196.317 215.565C179.537 215.356 164.53 226.882 156.296 242.031C151.45 251.545 149.878 261.952 151.41 271.848C143.598 275.255 135.637 281.39 130.368 289.117C111.905 297.787 88.9018 318.991 74.0879 338.867C71.7642 317.723 69.0045 288.692 70.6734 268.465C70.974 264.567 65.4011 261.717 62.4435 264.25L45.7655 278.071C45.0846 259.557 47.7987 243.503 56.5459 230.156C66.9707 214.245 84.9853 200.656 113.02 187.907C116.657 186.176 115.99 179.642 112.066 178.611L86.6431 172.129L86.6454 172.121ZM175.989 87.3571C176.27 87.0943 176.495 86.9684 176.81 86.8252C186.908 82.2169 186.396 149.277 214.6 209.978L203.108 218.825C175.785 160.02 167.31 95.5108 175.983 87.3538L175.989 87.3571ZM246.824 95.111C249.625 91.7823 253.224 88.0327 256.901 84.5357L248.913 109.486C247.73 113.316 252.911 117.331 256.321 115.223C282.139 98.6771 302.087 92.7164 320.793 94.4607C335.331 95.8172 349.946 103.324 365.415 113.949L349.906 113.822C345.767 115.967 342.809 118.33 347.652 123.126C365.959 132.668 389.469 150.838 406.248 164.13C386.282 165.177 367.606 169.013 353.506 173.257C346.679 169.375 338.849 167.044 330.514 166.737C318.339 166.288 306.661 170.186 297.371 177.879C274.724 159.828 244.634 162.83 226.753 184.587C222.049 190.458 218.751 197.158 217.141 204.07C213.881 195.636 211.035 187.014 208.452 178.456C216.007 151.564 226.692 119.151 246.825 95.1126L246.824 95.111ZM169.396 240.424C180.246 226.759 196.752 221.255 218.048 229.41C220.111 240.069 229.395 251.386 239.68 257.856C241.358 266.507 240.056 275.509 236.068 283.339C226.128 302.854 202.346 310.413 182.67 300.276C162.994 290.138 155.102 266.37 165.039 246.858C166.357 244.588 167.844 242.378 169.394 240.427L169.396 240.424ZM140.856 291.768C144.37 287.638 148.782 284.082 153.973 281.643C158.098 292.845 166.235 302.621 177.543 308.667C176.721 324.813 183.831 339.637 195.496 349.447C192.567 351.617 189.226 353.26 185.791 354.567C165.269 362.367 142.308 352.28 134.255 331.721C128.719 317.586 131.765 302.441 140.857 291.768L140.856 291.768ZM234.423 190.743C248.111 173.664 273.059 171.302 290.339 185.15C307.619 198.998 310.629 223.761 296.939 240.843C283.252 257.923 258.33 260.501 241.05 246.653C223.77 232.805 220.736 207.823 234.423 190.743ZM187.519 312.701C209.859 319.094 234.157 309.208 244.998 287.925C246.541 284.898 247.688 281.732 248.563 278.481C260.816 286.36 267.956 300.333 266.914 315.014C265.359 336.927 246.361 353.166 224.371 351.366C203.831 349.684 188.221 332.773 187.514 312.702L187.519 312.701ZM304.479 184.984C311.807 179.203 320.968 176.251 330.411 176.598C352.45 177.412 369.759 195.626 369.197 217.602C368.682 237.609 353.494 253.526 334.148 255.594C333.8 241.123 327.101 227.321 315.331 217.893C315.684 206.248 312.042 194.43 304.477 184.987L304.479 184.984ZM250.186 262.719C269.424 269.188 291.328 263.574 304.608 247.003C308.864 241.692 311.841 235.773 313.57 229.578C323.062 239.906 326.689 254.705 322.545 268.323C316.233 289.066 294.516 300.545 273.626 294.404C269.33 283.27 261.186 273.72 250.229 267.913C250.311 266.176 250.288 264.466 250.187 262.72L250.186 262.719ZM175.372 367.063C185.624 366.3 195.463 362.114 204.016 355.291C207.436 357.139 211.069 358.643 214.921 359.664C209.468 368.329 206.965 378.281 207.455 388.209C193.787 387.065 181.757 379.068 175.372 367.063L175.372 367.063ZM225.963 361.372C240.058 361.868 253.136 356.277 262.499 346.999C269.154 359.864 280.877 368.904 294.304 372.488C299.941 387.055 296.698 403.281 285.812 414.301C270.426 429.873 245.059 429.954 229.271 414.433C214.47 399.88 213.368 377.011 225.961 361.376L225.963 361.372ZM276.41 305.163C293.949 308.214 311.444 301.549 322.542 288.554C332.69 293.139 340.574 301.708 344.18 312.245C351.33 333.123 340.231 355.524 319.382 362.418C298.995 369.158 277.123 358.287 269.472 338.296C275.034 329.328 278.204 316.739 276.413 305.165L276.41 305.163ZM333.428 265.73C350.988 264.518 366.08 254.066 373.764 239.121C378.341 242.615 382.15 247.102 384.892 252.204C395.357 271.675 388.185 295.553 368.781 305.769C363.413 304.695 357.789 304.54 352.13 305.321C347.4 294.478 338.976 285.6 328.348 280.307C330.349 275.933 332.633 270.911 333.428 265.726L333.428 265.73ZM305.345 374.191C308.241 374.304 311.119 374.23 314.043 373.821C321.503 390.866 337.793 402.051 355.756 403.679C357.85 419.817 350.05 435.509 335.834 443.273C317.221 453.438 293.892 447.128 282.653 429.226C286.307 427.097 289.709 424.437 292.812 421.296C305.074 408.887 309.72 390.926 305.346 374.191L305.345 374.191ZM355.102 314.849C374.274 312.899 392.354 324.99 397.808 343.718C403.98 364.895 391.835 386.896 370.671 392.81C351.698 398.113 332.051 388.732 323.737 371.468C347.098 363.149 360.214 338.729 355.103 314.849L355.102 314.849ZM365.726 403.729C368.021 403.396 370.8 403.097 373.428 402.36C386.643 398.665 397.145 389.797 403.249 378.635C410.084 381.599 416.174 386.519 420.456 392.624C433.164 410.736 428.954 435.232 410.939 447.702C393.273 459.932 368.909 455.838 355.999 438.597C363.453 428.814 367.089 416.456 365.729 403.731L365.726 403.729Z" fill="url(#paint0_linear_623_5934)" fill-opacity="0.15"/>
</g>
<defs>
<linearGradient id="paint0_linear_623_5934" x1="112.208" y1="140.223" x2="445.451" y2="407.284" gradientUnits="userSpaceOnUse">
<stop stop-color="#3F3F3F"/>
<stop offset="1"/>
</linearGradient>
<clipPath id="clip0_623_5934">
<rect width="358.624" height="427.623" fill="white" transform="matrix(-0.62536 0.780336 0.780336 0.62536 224.273 0.0996094)"/>
</clipPath>
</defs>
</svg>
